static/assets/images/partner/auth0.svg

<svg viewBox="0 0 600 216.56" xmlns="http://www.w3.org/2000/svg"><path d="m297.82 119.34h-26.17a.61.61 0 0 1 -.49-.24.6.6 0 0 1 -.1-.53l13.08-45.11a.61.61 0 0 1 1.18 0l13.08 45.11a.6.6 0 0 1 -.1.53.61.61 0 0 1 -.48.24zm12.18 39.07h17l-25.92-89.41a17.06 17.06 0 0 0 -32.69 0l-25.93 89.42h17.05l7.49-25.89a.61.61 0 0 1 .59-.44h34.26a.61.61 0 0 1 .59.44zm95.82-51.35h10a.61.61 0 0 1 .61.61v35.27a16.93 16.93 0 0 0 17 16.81 35 35 0 0 0 10-1.44v-11.59c-1.88.16-4 .27-5.57.27a5 5 0 0 1 -5-5v-34.33a.61.61 0 0 1 .61-.61h10v-12.74h-10a.61.61 0 0 1 -.61-.61v-21.17h-16.49v21.17a.61.61 0 0 1 -.61.61h-10zm94.53 51.35h16.35v-44.27a21.31 21.31 0 0 0 -21.41-21.14 35.79 35.79 0 0 0 -19 5.89.62.62 0 0 1 -.63 0 .61.61 0 0 1 -.32-.53v-40.22h-16.43v100.27h16.39v-47.93a.6.6 0 0 1 .33-.54c3.08-1.57 9.16-4.21 15.25-4.21a9.41 9.41 0 0 1 6.66 2.73 9.2 9.2 0 0 1 2.76 6.54v43.37zm-164.18-64.1v44.27a21.31 21.31 0 0 0 21.41 21.17 35.77 35.77 0 0 0 20.94-7.22.62.62 0 0 1 .56-.1.61.61 0 0 1 .4.4l1.73 5.59h12.79v-64.11h-16.43v47.94a.61.61 0 0 1 -.33.54c-3.08 1.57-9.16 4.21-15.25 4.21a9.38 9.38 0 0 1 -9.42-9.31v-43.38zm228.44 52.69c-5 0-9-2.82-12.17-8.62-3.81-7-5.91-17.69-5.91-30.09s2.1-23.09 5.91-30.09c3.15-5.8 7.13-8.62 12.17-8.62s9 2.82 12.17 8.62c3.81 7 5.91 17.69 5.91 30.09s-2.1 23.09-5.91 30.09c-3.15 5.79-7.13 8.62-12.17 8.62zm0-90.18c-10.54 0-19.46 4.91-25.78 14.2s-9.61 22.12-9.61 37.27 3.32 28 9.61 37.27 15.24 14.2 25.78 14.2 19.46-4.91 25.78-14.2 9.61-22.14 9.61-37.28-3.32-28-9.61-37.27-15.24-14.2-25.78-14.2z" fill="#16214d" fill-rule="evenodd"/><path d="m189 66.92-21.78-66.92h-70.37l21.75 66.92zm-92.15-66.92h-70.36l-21.74 66.92h70.36zm-92.1 66.92a96.85 96.85 0 0 0 35.18 108.28l21.74-66.92zm184.21 0-56.96 41.36 21.74 66.92a96.85 96.85 0 0 0 35.26-108.28zm-149.03 108.28 56.93 41.36 56.92-41.36-56.93-41.36z" fill="#eb5424"/></svg>

<svg id="artwork" xmlns="http://www.w3.org/2000/svg" viewBox="0 0 600 216.56"><defs><style>.cls-1{fill:#16214d;fill-rule:evenodd;}.cls-2{fill:#eb5424;}</style></defs><title>auth0-logo-whitebg</title><path class="cls-1" d="M297.82,119.34H271.65a.61.61,0,0,1-.49-.24.6.6,0,0,1-.1-.53l13.08-45.11a.61.61,0,0,1,1.18,0l13.08,45.11a.6.6,0,0,1-.1.53A.61.61,0,0,1,297.82,119.34ZM310,158.41H327L301.08,69a17.06,17.06,0,0,0-32.69,0l-25.93,89.42h17.05L267,132.53a.61.61,0,0,1,.59-.44h34.26a.61.61,0,0,1,.59.44Zm95.82-51.35h10a.61.61,0,0,1,.61.61v35.27a16.93,16.93,0,0,0,17,16.81,35,35,0,0,0,10-1.44V146.72c-1.88.16-4,.27-5.57.27a5,5,0,0,1-5-5V107.66a.61.61,0,0,1,.61-.61h10V94.31h-10a.61.61,0,0,1-.61-.61V72.53H416.37V93.7a.61.61,0,0,1-.61.61h-10Zm94.53,51.35H516.7V114.14A21.31,21.31,0,0,0,495.29,93a35.79,35.79,0,0,0-19,5.89.62.62,0,0,1-.63,0,.61.61,0,0,1-.32-.53V58.14H458.91V158.41H475.3V110.48a.6.6,0,0,1,.33-.54c3.08-1.57,9.16-4.21,15.25-4.21a9.41,9.41,0,0,1,6.66,2.73A9.2,9.2,0,0,1,500.3,115v43.37ZM336.17,94.31v44.27a21.31,21.31,0,0,0,21.41,21.17,35.77,35.77,0,0,0,20.94-7.22.62.62,0,0,1,.56-.1.61.61,0,0,1,.4.4l1.73,5.59H394V94.31H377.57v47.94a.61.61,0,0,1-.33.54c-3.08,1.57-9.16,4.21-15.25,4.21a9.38,9.38,0,0,1-9.42-9.31V94.31ZM564.61,147c-5,0-9-2.82-12.17-8.62-3.81-7-5.91-17.69-5.91-30.09s2.1-23.09,5.91-30.09c3.15-5.8,7.13-8.62,12.17-8.62s9,2.82,12.17,8.62c3.81,7,5.91,17.69,5.91,30.09s-2.1,23.09-5.91,30.09C573.63,144.17,569.65,147,564.61,147Zm0-90.18c-10.54,0-19.46,4.91-25.78,14.2s-9.61,22.12-9.61,37.27,3.32,28,9.61,37.27,15.24,14.2,25.78,14.2,19.46-4.91,25.78-14.2S600,123.42,600,108.28s-3.32-28-9.61-37.27S575.15,56.81,564.61,56.81Z"/><path id="NEW" class="cls-2" d="M189,66.92,167.22,0H96.85L118.6,66.92ZM96.85,0H26.49L4.75,66.92H75.11ZM4.75,66.92Zm0,0h0A96.85,96.85,0,0,0,39.93,175.2l21.74-66.92Zm184.21,0h0L132,108.28l21.74,66.92h0A96.85,96.85,0,0,0,189,66.92ZM39.93,175.2h0l56.93,41.36,56.92-41.36L96.85,133.84Z"/></svg>
